; generated by PrusaSlicer 2.9.4 on 2026-01-16 at 06:54:00 UTC


;
;

;
;
; 

; external perimeters extrusion width = 0.45mm
; perimeters extrusion width = 0.45mm
; infill extrusion width = 0.45mm
; solid infill extrusion width = 0.45mm
; top infill extrusion width = 0.42mm
; first layer extrusion width = 0.50mm


; printing object 3DBenchy.stl id:0 copy 0
; stop printing object 3DBenchy.stl id:0 copy 0

;TYPE:Custom
M140 S0
M104 S0
M106 P1 S255
M106 P2 S0
START_PRINT EXTRUDER_TEMP=200 BED_TEMP=60
G21 ; set units to millimeters
G90 ; use absolute coordinates
M83 ; use relative distances for extrusion
; Filament gcode
M107
;LAYER_CHANGE
;Z:0.2
;HEIGHT:0.2
G1 E-.8 F1800
G1 Z.2 F14400
; printing object 3DBenchy.stl id:0 copy 0
G1 X148.91 Y153.436 F30000
G1 Z.2 F14400
G1 E.8 F1800
M204 S500
;TYPE:External perimeter
;WIDTH:0.499999
G1 F2400
G1 X148.897 Y153.436 E.00049
G1 X148.59 Y153.261 E.01343
G1 X148.473 Y153.096 E.00769
G1 X148.365 Y152.734 E.01436
;WIDTH:0.474647
G1 X148.409 Y152.441 E.01064
;WIDTH:0.499999
G1 X148.54 Y151.957 E.01906
G1 X148.739 Y151.459 E.02038
G1 X148.919 Y151.056 E.01677
G1 X149.119 Y150.751 E.01386
G1 X148.72 Y150.098 E.02908
G1 X148.395 Y149.521 E.02517
G1 X148.227 Y149.021 E.02005
G1 X148.263 Y148.62 E.0153
G1 X148.41 Y148.366 E.01115
G1 X148.636 Y148.181 E.0111
G1 X149.024 Y148.057 E.01548
G1 X149.395 Y148.122 E.01432
G1 X149.687 Y148.327 E.01356
G1 X149.843 Y148.586 E.01149
G1 X150.021 Y149.007 E.01737
G1 X150.095 Y149.1 E.00452
G1 X150.163 Y149.133 E.00287
G1 X150.345 Y148.984 E.00894
G1 X150.59 Y148.44 E.02268
G1 X150.815 Y148.227 E.01178
G1 X151.136 Y148.095 E.01319
G1 X151.425 Y148.112 E.011
G1 X151.671 Y148.25 E.01072
;WIDTH:0.500267
G1 X151.874 Y148.525 E.013
;WIDTH:0.504083
G1 X151.948 Y148.905 E.01485
;WIDTH:0.523115
G1 X151.894 Y149.364 E.01845
G1 X151.672 Y149.863 E.02181
;WIDTH:0.499999
G1 X151.404 Y150.338 E.02073
G1 X151.269 Y150.61 E.01154
G1 X151.241 Y150.728 E.00461
G1 X151.413 Y151.084 E.01503
G1 X151.98 Y152.027 E.04182
G1 X152.128 Y152.449 E.017
G1 X152.136 Y152.762 E.0119
G1 X152.049 Y153.065 E.01198
G1 X151.87 Y153.304 E.01135
G1 X151.612 Y153.461 E.01148
G1 X151.146 Y153.532 E.01792
G1 X150.734 Y153.358 E.017
G1 X150.491 Y153.017 E.01591
G1 X150.383 Y152.619 E.01567
G1 X150.28 Y152.439 E.00788
G1 X150.089 Y152.343 E.00812
G1 X149.96 Y152.433 E.00598
G1 X149.699 Y153.075 E.02634
G1 X149.452 Y153.333 E.01357
G1 X149.208 Y153.441 E.01014
G1 X148.97 Y153.437 E.00905
M204 S12000
G1 X148.614 Y153.256 F30000
G1 E-.8 F1800
G1 X146.633 Y151.041 F30000
G1 E.8 F1800
M204 S500
G1 F2400
G1 X146.97 Y150.981 E.01301
G1 X147.368 Y151.075 E.01554
G1 X147.772 Y151.399 E.01968
G1 X147.956 Y151.759 E.01537
G1 X147.998 Y152.395 E.02422
G1 X147.822 Y153.123 E.02847
G1 X147.751 Y153.278 E.00648
G1 X147.393 Y153.624 E.01892
G1 X146.889 Y153.799 E.02028
G1 X146.389 Y153.757 E.01907
G1 X146.063 Y153.615 E.01351
G1 X145.833 Y153.426 E.01131
G1 X145.647 Y153.156 E.01246
G1 X145.533 Y152.84 E.01277
G1 X145.522 Y152.279 E.02133
G1 X145.586 Y152.131 E.00613
;WIDTH:0.454244
G1 X145.65 Y151.982 E.00555
;WIDTH:0.408488
G1 X145.715 Y151.834 E.00491
;WIDTH:0.400519
G1 X145.787 Y151.708 E.00432
;WIDTH:0.438305
G1 X145.858 Y151.582 E.00475
;WIDTH:0.476091
G1 X145.93 Y151.456 E.00523
;WIDTH:0.499999
G1 X146.46 Y151.072 E.02487
G1 X146.574 Y151.052 E.0044
M204 S12000
G1 X146.971 Y151.002 F30000
G1 E-.8 F1800
G1 X156.008 Y148.117 F30000
G1 E.8 F1800
M204 S500
;WIDTH:0.500019
G1 F2400
G1 X156.156 Y148.174 E.00603
G1 X156.415 Y148.42 E.01358
G1 X156.55 Y148.936 E.02027
;WIDTH:0.486388
G1 X156.56 Y149.149 E.00786
;WIDTH:0.499999
G1 X156.439 Y149.857 E.0273
G1 X156.204 Y150.726 E.03421
G1 X155.245 Y153.41 E.10832
G1 X154.786 Y154.563 E.04717
G1 X154.567 Y155.036 E.01981
G1 X154.277 Y155.453 E.0193
G1 X153.886 Y155.767 E.01906
G1 X153.294 Y156.005 E.02425
G1 X152.796 Y156.068 E.01908
G1 X152.294 Y155.921 E.01988
G1 X152.003 Y155.61 E.01619
G1 X151.858 Y155.229 E.01549
G1 X151.881 Y154.757 E.01796
G1 X152.047 Y154.492 E.01188
G1 X152.385 Y154.279 E.01518
G1 X152.864 Y154.135 E.01901
G1 X153.101 Y153.948 E.01147
G1 X153.573 Y152.822 E.0464
G1 X153.565 Y152.576 E.00935
G1 X153.301 Y151.973 E.02502
G1 X152.586 Y150.035 E.07851
;WIDTH:0.51475
G1 X152.423 Y149.485 E.02251
G1 X152.407 Y148.926 E.02194
;WIDTH:0.504083
G1 X152.462 Y148.479 E.01727
;WIDTH:0.500019
G1 X152.594 Y148.292 E.0087
G1 X152.814 Y148.128 E.01043
G1 X153.15 Y148.065 E.01299
G1 X153.507 Y148.124 E.01375
G1 X153.712 Y148.226 E.0087
G1 X154.031 Y148.567 E.01775
G1 X154.172 Y149.016 E.01789
G1 X154.297 Y149.906 E.03416
G1 X154.539 Y150.533 E.02554
G1 X154.586 Y150.542 E.00182
G1 X154.812 Y149.762 E.03087
G1 X154.912 Y149.013 E.02872
G1 X155.074 Y148.617 E.01626
G1 X155.328 Y148.302 E.01538
G1 X155.53 Y148.165 E.00928
G1 X155.935 Y148.089 E.01566
G1 X155.952 Y148.096 E.0007
M204 S12000
G1 X156.288 Y148.313 F30000
G1 X157.149 Y149.498
M204 S500
;WIDTH:0.499999
G1 F2400
G1 X157.084 Y149.412 E.0041
;WIDTH:0.499753
G1 X157.009 Y149.125 E.01127
;WIDTH:0.491205
G1 X157.004 Y148.829 E.01103
;WIDTH:0.499999
G1 X157.123 Y148.427 E.01593
G1 X157.257 Y148.278 E.00762
G1 X157.489 Y148.15 E.01007
G1 X157.959 Y148.045 E.0183
G1 X160.042 Y148.036 E.07917
G1 X160.455 Y148.151 E.01629
G1 X160.563 Y148.223 E.00493
G1 X160.816 Y148.552 E.01577
G1 X160.892 Y148.839 E.01128
G1 X160.858 Y149.374 E.02037
G1 X160.58 Y149.923 E.02339
G1 X160.115 Y150.575 E.03044
G1 X159.641 Y151.114 E.02728
G1 X159.303 Y151.426 E.01748
G1 X159.271 Y151.677 E.00962
G1 X159.252 Y151.703 E.00122
G1 X159.47 Y151.727 E.00834
G1 X159.569 Y151.818 E.00511
G1 X159.736 Y151.761 E.00671
G1 X160.246 Y151.789 E.01941
G1 X160.519 Y151.911 E.01136
G1 X160.677 Y152.067 E.00844
G1 X160.786 Y152.58 E.01993
G1 X160.718 Y152.863 E.01106
;WIDTH:0.474909
G1 X160.345 Y153.254 E.01941
;WIDTH:0.499999
G1 X159.625 Y153.425 E.02813
G1 X158.937 Y153.519 E.02639
G1 X157.578 Y153.545 E.05166
G1 X157.129 Y153.382 E.01815
G1 X156.846 Y153.007 E.01786
G1 X156.754 Y152.621 E.01508
G1 X156.815 Y152.128 E.01888
G1 X157.088 Y151.6 E.02259
G1 X157.68 Y150.829 E.03694
G1 X158.36 Y150.176 E.03583
G1 X158.552 Y149.867 E.01383
G1 X158.538 Y149.79 E.00297
G1 X158.376 Y149.723 E.00666
G1 X157.867 Y149.759 E.01939
G1 X157.41 Y149.689 E.01757
G1 X157.187 Y149.544 E.01011
M204 S12000
G1 X157.03 Y149.176 F30000
G1 E-.8 F1800
G1 X140.828 Y146.969 F30000
G1 E.8 F1800
M204 S500
G1 F2400
G1 X141.042 Y146.753 E.01156
G1 X141.408 Y146.617 E.01484
G1 X141.737 Y146.584 E.01257
G1 X143.344 Y146.621 E.06109
G1 X143.954 Y146.708 E.02342
G1 X144.472 Y146.871 E.02064
G1 X144.885 Y147.108 E.0181
G1 X145.264 Y147.454 E.0195
G1 X145.576 Y147.88 E.02007
G1 X145.815 Y148.379 E.02103
G1 X145.976 Y148.943 E.02229
G1 X146.046 Y149.514 E.02186
G1 X146.052 Y150.021 E.01927
G1 X145.946 Y150.542 E.02021
G1 X145.666 Y151.261 E.02933
;WIDTH:0.476091
G1 X145.584 Y151.409 E.00609
;WIDTH:0.437795
G1 X145.503 Y151.558 E.00557
;WIDTH:0.399499
G1 X145.422 Y151.706 E.005
;WIDTH:0.407469
G1 X145.352 Y151.864 E.00524
;WIDTH:0.453734
G1 X145.282 Y152.023 E.00593
;WIDTH:0.499999
G1 X145.213 Y152.182 E.00659
G1 X144.867 Y152.654 E.02224
G1 X144.539 Y152.953 E.01687
G1 X144.074 Y153.172 E.01953
G1 X143.404 Y153.304 E.02595
G1 X142.861 Y153.334 E.02067
G1 X142.13 Y153.327 E.02778
G1 X141.533 Y153.366 E.02274
G1 X141.204 Y153.301 E.01275
G1 X141.008 Y153.174 E.00888
G1 X140.764 Y152.833 E.01594
G1 X140.685 Y152.527 E.01201
;WIDTH:0.540981
G1 X140.659 Y151.678 E.03518
G1 X140.664 Y151.148 E.02195
;WIDTH:0.533081
G1 X140.681 Y150.435 E.02907
;WIDTH:0.499999
G1 X140.684 Y148.053 E.09053
G1 X140.651 Y147.373 E.02587
G1 X140.747 Y147.051 E.01277
G1 X140.786 Y147.012 E.0021
M204 S12000
G1 X141.092 Y146.754 F30000
G1 E-.8 F1800
G1 X136.303 Y148.431 F30000
G1 E.8 F1800
M204 S500
;WIDTH:0.500292
G1 F2400
G1 X136.19 Y148.38 E.00471
;WIDTH:0.513865
G1 X135.913 Y147.932 E.02063
G1 X135.908 Y147.595 E.0132
;WIDTH:0.508426
G1 X136.063 Y147.113 E.0196
;WIDTH:0.499999
G1 X136.263 Y146.886 E.0115
G1 X136.548 Y146.689 E.01317
G1 X136.893 Y146.542 E.01425
G1 X137.58 Y146.427 E.02647
G1 X138.026 Y146.429 E.01695
G1 X138.638 Y146.531 E.02358
G1 X139.166 Y146.765 E.02195
G1 X139.561 Y147.115 E.02006
G1 X139.818 Y147.55 E.0192
G1 X139.905 Y148.046 E.01914
G1 X139.791 Y148.808 E.02928
G1 X139.652 Y148.987 E.00861
G1 X139.299 Y149.375 E.01994
G1 X139.047 Y149.506 E.01079
G1 X139.361 Y149.652 E.01316
G1 X139.614 Y149.923 E.01409
G1 X139.744 Y149.971 E.00527
G1 X139.84 Y150.092 E.00587
G1 X140.029 Y150.503 E.01719
;WIDTH:0.53841
G1 X140.171 Y151.071 E.02412
;WIDTH:0.546685
G1 X140.156 Y151.579 E.02129
G1 X139.996 Y152.06 E.02123
;WIDTH:0.499999
G1 X139.81 Y152.426 E.0156
G1 X139.39 Y152.933 E.02502
G1 X138.97 Y153.23 E.01955
G1 X138.305 Y153.456 E.02669
G1 X137.842 Y153.504 E.01769
G1 X137.06 Y153.447 E.0298
G1 X136.434 Y153.232 E.02516
G1 X136.101 Y152.987 E.01571
G1 X135.872 Y152.661 E.01514
G1 X135.755 Y152.253 E.01613
G1 X135.784 Y151.905 E.01327
G1 X135.926 Y151.609 E.01248
G1 X136.291 Y151.323 E.01762
;WIDTH:0.548192
G1 X136.482 Y151.276 E.00826
;WIDTH:0.596384
G1 X136.673 Y151.228 E.00906
;WIDTH:0.644576
G1 X136.865 Y151.181 E.00989
G1 X137.16 Y151.245 E.0151
;WIDTH:0.642328
G1 X137.304 Y151.355 E.00903
;WIDTH:0.594885
G1 X137.449 Y151.466 E.00838
;WIDTH:0.547442
G1 X137.594 Y151.576 E.00764
;WIDTH:0.499999
G1 X137.784 Y151.703 E.00869
G1 X137.989 Y151.65 E.00805
G1 X138.13 Y151.488 E.00816
G1 X138.175 Y151.282 E.00801
G1 X138.054 Y150.974 E.01258
G1 X137.859 Y150.799 E.00996
;WIDTH:0.539783
G1 X137.706 Y150.745 E.0067
;WIDTH:0.579566
G1 X137.552 Y150.692 E.00727
;WIDTH:0.644576
G1 X137.019 Y150.604 E.02703
G1 X136.939 Y150.539 E.00516
;WIDTH:0.596384
G1 X136.858 Y150.475 E.00475
;WIDTH:0.548192
G1 X136.777 Y150.41 E.00436
;WIDTH:0.499999
G1 X136.525 Y150.121 E.01457
G1 X136.463 Y149.828 E.01138
G1 X136.52 Y149.46 E.01415
;WIDTH:0.500292
G1 X136.746 Y149.11 E.01584
;WIDTH:0.501228
G1 X137.049 Y148.924 E.01355
;WIDTH:0.51985
G1 X137.591 Y148.718 E.02299
G1 X137.832 Y148.524 E.01227
G1 X137.879 Y148.358 E.00684
G1 X137.766 Y148.244 E.00637
G1 X137.447 Y148.261 E.01267
G1 X136.879 Y148.498 E.02441
;WIDTH:0.501228
G1 X136.58 Y148.553 E.01159
;WIDTH:0.500292
G1 X136.358 Y148.455 E.00923
M204 S12000
G1 X136.074 Y148.174 F30000
G1 X135.296 Y146.912
M204 S500
;WIDTH:0.499999
G1 F2400
G1 X135.406 Y147.03 E.00613
;WIDTH:0.518174
G1 X135.467 Y147.396 E.01466
G1 X135.411 Y147.87 E.01886
;WIDTH:0.513865
G1 X135.285 Y148.113 E.01072
;WIDTH:0.499999
G1 X135.088 Y148.278 E.00977
G1 X134.788 Y148.388 E.01214
G1 X134.196 Y148.457 E.02265
G1 X133.681 Y148.452 E.01957
G1 X133.692 Y152.362 E.14861
G1 X133.627 Y152.708 E.01338
G1 X133.474 Y153 E.01253
G1 X133.289 Y153.189 E.01005
G1 X133.024 Y153.317 E.01119
G1 X132.644 Y153.354 E.01451
G1 X132.245 Y153.244 E.01573
G1 X131.949 Y152.986 E.01492
G1 X131.822 Y152.639 E.01404
G1 X131.849 Y151.927 E.02708
G1 X131.833 Y149.148 E.10562
G1 X131.864 Y148.637 E.01946
G1 X131.831 Y148.485 E.00591
G1 X131.644 Y148.42 E.00752
G1 X130.998 Y148.468 E.02462
G1 X130.557 Y148.396 E.01698
G1 X130.268 Y148.175 E.01383
;WIDTH:0.508653
G1 X130.13 Y147.832 E.01432
G1 X130.072 Y147.511 E.01263
;WIDTH:0.508409
G1 X130.127 Y147.066 E.01736
;WIDTH:0.499999
G1 X130.285 Y146.821 E.01108
G1 X130.469 Y146.69 E.00858
G1 X130.874 Y146.575 E.016
G1 X131.488 Y146.606 E.02337
G1 X134.627 Y146.608 E.1193
G1 X135.118 Y146.72 E.01914
G1 X135.255 Y146.868 E.00766
M204 S12000
G1 X135.428 Y147.229 F30000
G1 E-.8 F1800
G1 X129.172 Y148.758 F30000
G1 E.8 F1800
M204 S500
G1 F2400
G1 X129.138 Y148.782 E.00158
G1 X128.659 Y148.814 E.01825
G1 X128.04 Y148.543 E.02568
G1 X127.701 Y148.35 E.01483
G1 X127.426 Y148.327 E.01049
G1 X127.113 Y148.437 E.01261
G1 X126.907 Y148.56 E.00912
G1 X126.683 Y148.887 E.01506
G1 X126.575 Y149.3 E.01622
G1 X126.513 Y149.924 E.02383
G1 X126.577 Y150.694 E.02937
G1 X126.748 Y151.171 E.01926
G1 X126.965 Y151.41 E.01227
G1 X127.26 Y151.566 E.01268
G1 X127.683 Y151.596 E.01612
G1 X127.94 Y151.539 E.01
G1 X128.362 Y151.19 E.02081
G1 X128.714 Y151.095 E.01386
G1 X129.113 Y151.14 E.01526
G1 X129.545 Y151.386 E.01889
G1 X129.766 Y151.722 E.01528
G1 X129.812 Y152.108 E.01477
G1 X129.581 Y152.605 E.02083
G1 X129.314 Y152.921 E.01572
G1 X129.06 Y153.123 E.01233
G1 X128.754 Y153.289 E.01323
G1 X128.395 Y153.412 E.01442
G1 X127.656 Y153.505 E.02831
G1 X126.926 Y153.439 E.02786
G1 X126.368 Y153.261 E.02226
G1 X125.802 Y152.923 E.02506
G1 X125.413 Y152.552 E.02043
G1 X125.118 Y152.092 E.02077
;WIDTH:0.518275
G1 X124.958 Y151.651 E.01854
G1 X124.871 Y150.993 E.02623
;WIDTH:0.501729
G1 X124.837 Y150.458 E.02045
G1 X124.837 Y149.493 E.03681
G1 X124.866 Y148.971 E.01995
;WIDTH:0.506095
G1 X124.946 Y148.376 E.02312
G1 X125.118 Y147.841 E.02164
;WIDTH:0.499999
G1 X125.379 Y147.423 E.01873
G1 X125.809 Y147.001 E.0229
G1 X126.379 Y146.664 E.02517
G1 X126.958 Y146.484 E.02304
G1 X127.582 Y146.424 E.02383
G1 X128.103 Y146.457 E.01984
G1 X128.534 Y146.558 E.01682
G1 X128.986 Y146.787 E.01926
G1 X129.232 Y146.986 E.01203
;WIDTH:0.500164
G1 X129.499 Y147.32 E.01626
;WIDTH:0.505841
G1 X129.656 Y147.818 E.0201
G1 X129.639 Y148.241 E.0163
;WIDTH:0.499999
G1 X129.454 Y148.563 E.01411
G1 X129.222 Y148.724 E.01073
M204 S12000
G1 X128.829 Y148.797 F30000
G1 E-.8 F1800
G1 X156.272 Y152.106 F30000
G1 E.8 F1800
M204 S500
;TYPE:Perimeter
;WIDTH:0.641894
G1 F2400
G1 X156.328 Y151.935 E.00896
M204 S12000
G1 X156.272 Y152.106 F30000
M204 S500
G1 F2400
G1 X156.281 Y152.264 E.00788
;WIDTH:0.594596
G1 X156.29 Y152.422 E.00726
;WIDTH:0.547298
G1 X156.298 Y152.581 E.00668
;WIDTH:0.499999
G1 X156.406 Y153.13 E.02127
G1 X156.524 Y153.366 E.01003
G1 X156.877 Y153.762 E.02016
G1 X157.316 Y153.954 E.01821
G1 X157.593 Y154.002 E.01068
G1 X158.999 Y153.974 E.05345
G1 X158.061 Y154.671 E.04441
G1 X157.19 Y155.232 E.03938
G1 X156.233 Y155.751 E.04138
G1 X155.229 Y156.198 E.04177
G1 X154.053 Y156.626 E.04756
;WIDTH:0.464059
G1 X153.347 Y156.829 E.02572
;WIDTH:0.466586
G1 X152.939 Y156.895 E.01456
;WIDTH:0.497622
G1 X152.532 Y156.961 E.01559
;WIDTH:0.499999
G1 X151.877 Y157.072 E.02525
G1 X151.376 Y157.13 E.01917
G1 X150.649 Y157.179 E.02769
G1 X149.993 Y157.192 E.02494
G1 X149.188 Y157.165 E.03061
G1 X126.365 Y155.778 E.86902
G1 X125.607 Y155.698 E.02897
G1 X125.267 Y155.483 E.01529
G1 X125.134 Y155.25 E.0102
G1 X125.038 Y154.913 E.01332
G1 X125.032 Y152.802 E.08023
G1 X125.564 Y153.314 E.02806
G1 X126.083 Y153.63 E.02309
G1 X126.391 Y153.75 E.01256
G1 X126.882 Y153.894 E.01945
G1 X127.716 Y153.958 E.03179
G1 X128.452 Y153.865 E.0282
G1 X128.908 Y153.72 E.01819
G1 X129.283 Y153.522 E.01612
G1 X129.615 Y153.265 E.01596
G1 X129.971 Y152.844 E.02095
G1 X130.207 Y152.356 E.0206
G1 X130.273 Y152.087 E.01053
G1 X130.217 Y151.65 E.01674
G1 X130.086 Y151.343 E.01269
G1 X129.909 Y151.11 E.01112
G1 X129.693 Y150.923 E.01086
G1 X129.227 Y150.694 E.01973
G1 X128.745 Y150.639 E.01844
G1 X128.31 Y150.718 E.0168
G1 X127.935 Y150.926 E.0163
G1 X127.731 Y151.127 E.01088
G1 X127.386 Y151.122 E.01311
G1 X127.205 Y151.018 E.00793
G1 X127.027 Y150.596 E.01741
G1 X126.971 Y149.928 E.02548
G1 X127.03 Y149.345 E.02227
G1 X127.153 Y148.977 E.01475
G1 X127.385 Y148.807 E.01093
G1 X127.563 Y148.797 E.00678
G1 X128.004 Y149.048 E.01929
G1 X128.499 Y149.242 E.02021
G1 X128.816 Y149.281 E.01214
G1 X129.357 Y149.187 E.02087
G1 X129.822 Y148.844 E.02196
G1 X129.998 Y148.554 E.01289
G1 X130.422 Y148.838 E.0194
G1 X130.893 Y148.921 E.01818
G1 X131.39 Y148.892 E.01892
G1 X131.375 Y149.15 E.00982
G1 X131.392 Y151.919 E.10524
G1 X131.365 Y152.621 E.0267
G1 X131.404 Y152.876 E.0098
G1 X131.631 Y153.334 E.01943
G1 X131.972 Y153.611 E.0167
G1 X132.23 Y153.729 E.01078
G1 X132.653 Y153.816 E.01641
G1 X133.086 Y153.77 E.01655
G1 X133.508 Y153.59 E.01744
G1 X133.842 Y153.275 E.01745
G1 X134.046 Y152.891 E.01653
G1 X134.149 Y152.361 E.02052
G1 X134.135 Y148.913 E.13105
G1 X134.514 Y148.902 E.01441
G1 X134.935 Y148.824 E.01627
G1 X135.38 Y148.637 E.01835
G1 X135.641 Y148.388 E.01371
G1 X135.846 Y148.684 E.01368
G1 X136.259 Y148.932 E.01831
